media/icons/icon-refresh-grey.svg

<svg width="14" height="12" viewBox="0 0 14 12" xmlns="http://www.w3.org/2000/svg" xmlns:sketch="http://www.bohemiancoding.com/sketch/ns"><title>icon-refresh</title><desc>Created with Sketch.</desc><path d="M11.007 8.98l2.993-3.489h-2.017c-.072-.87-.327-1.684-.733-2.41-.854-1.534-2.363-2.653-4.147-2.981l-.069-.012-.044-.006c-.315-.053-.642-.081-.973-.081h-.012c-2.834.006-5.207 1.983-5.821 4.633v.003l-.022.103-.009.044-.012.065-.016.081-.006.034-.019.112v.006c-.031.196-.05.396-.059.596v.025l-.006.128-.003.156.003.156.006.128v.028c.009.203.031.402.059.596v.006l.019.112.006.034.016.081.012.065.009.044.022.1v.003c.614 2.65 2.996 4.627 5.834 4.633 1.338-.003 2.591-.443 3.645-1.269l.234-.184-1.347-1.441-.193.143c-.689.508-1.481.755-2.339.755-2.201 0-3.991-1.777-3.991-3.991 0-2.214 1.79-3.991 3.991-3.991 2.07 0 3.829 1.453 4.038 3.492h-2.292l3.243 3.492z" sketch:type="MSShapeGroup" fill="#57626C"></path></svg>

<svg width="14px" height="12px" viewBox="0 0 14 12" version="1.1" xmlns="http://www.w3.org/2000/svg" xmlns:xlink="http://www.w3.org/1999/xlink">
    <!-- Generator: Sketch 43.2 (39069) - http://www.bohemiancoding.com/sketch -->
    <desc>Created with Sketch.</desc>
    <defs></defs>
    <g id="Page-1" stroke="none" stroke-width="1" fill="none" fill-rule="evenodd">
        <g id="icon-refreash" transform="translate(-31.000000, -32.000000)" fill-rule="nonzero" fill="#57626C">
            <g id="icon-refresh" transform="translate(31.000000, 32.000000)">
                <path d="M11.007,8.98 L14,5.491 L11.983,5.491 C11.911,4.621 11.656,3.807 11.25,3.081 C10.396,1.547 8.887,0.428 7.103,0.1 L7.034,0.088 L6.99,0.082 C6.675,0.029 6.348,0.001 6.017,0.001 L6.005,0.001 C3.171,0.007 0.798,1.984 0.184,4.634 L0.184,4.637 L0.162,4.74 L0.153,4.784 L0.141,4.849 L0.125,4.93 L0.119,4.964 L0.1,5.076 L0.1,5.082 C0.069,5.278 0.05,5.478 0.041,5.678 L0.041,5.703 L0.035,5.831 L0.032,5.987 L0.035,6.143 L0.041,6.271 L0.041,6.299 C0.05,6.502 0.072,6.701 0.1,6.895 L0.1,6.901 L0.119,7.013 L0.125,7.047 L0.141,7.128 L0.153,7.193 L0.162,7.237 L0.184,7.337 L0.184,7.34 C0.798,9.99 3.18,11.967 6.018,11.973 C7.356,11.97 8.609,11.53 9.663,10.704 L9.897,10.52 L8.55,9.079 L8.357,9.222 C7.668,9.73 6.876,9.977 6.018,9.977 C3.817,9.977 2.027,8.2 2.027,5.986 C2.027,3.772 3.817,1.995 6.018,1.995 C8.088,1.995 9.847,3.448 10.056,5.487 L7.764,5.487 L11.007,8.979 L11.007,8.98 Z" id="Shape"></path>
            </g>
        </g>
    </g>
</svg>
